apps/scalable/gnome-subtitles.svg

<svg xmlns="http://www.w3.org/2000/svg" style="isolation:isolate" width="256" height="256"><defs><clipPath id="a"><path d="M0 0h256v256H0z"/></clipPath></defs><g clip-path="url(#a)"><defs><filter id="b" width="270.648" height="254.338" x="-6.66" y="4.28" filterUnits="userSpaceOnUse"><feGaussianBlur xmlns="http://www.w3.org/2000/svg" in="SourceGraphic" stdDeviation="4.294"/><feOffset xmlns="http://www.w3.org/2000/svg" dy="4" result="pf_100_offsetBlur"/><feFlood xmlns="http://www.w3.org/2000/svg" flood-opacity=".4"/><feComposite xmlns="http://www.w3.org/2000/svg" in2="pf_100_offsetBlur" operator="in" result="pf_100_dropShadow"/><feBlend xmlns="http://www.w3.org/2000/svg" in="SourceGraphic" in2="pf_100_dropShadow"/></filter></defs><g filter="url(#b)"><linearGradient id="c" x1=".51" x2=".512" y1="1.06" y2=".158" gradientTransform="matrix(244.648 0 0 228.338 6.343 13.28)" gradientUnits="userSpaceOnUse"><stop offset=".87%" stop-color="#f76363"/><stop offset="99.565%" stop-color="#e9558d"/><stop offset="100%" stop-color="#e6548b"/></linearGradient><path fill="url(#c)" d="M166.351 13.28c74.056 0 84.64 10.557 84.64 84.544v59.251c0 73.986-10.584 84.544-84.64 84.544H90.982c-74.056 0-84.639-10.558-84.639-84.544V97.824c0-73.987 10.583-84.544 84.639-84.544h75.369z"/></g><path fill="#FFF" d="M8.476 55.74C6.729 66.667 6.158 80.255 6.158 97.205v59.251c0 73.986 10.584 84.544 84.64 84.544h75.369c55.135 0 75.078-5.874 81.675-39.397L8.476 55.74z" opacity=".05"/><g opacity=".4"><linearGradient id="d" x1=".517" x2=".517" y2="1"><stop offset="0%" stop-color="#fff"/><stop offset="12.5%" stop-opacity=".098" stop-color="#fff"/><stop offset="92.5%" stop-opacity=".098"/><stop offset="100%" stop-opacity=".498"/></linearGradient><path fill="none" stroke="url(#d)" stroke-linecap="round" stroke-linejoin="round" stroke-width="4.077" d="M165.685 11.947c74.055 0 84.639 10.557 84.639 84.544v59.251c0 73.986-10.584 84.543-84.639 84.543h-75.37c-74.055 0-84.639-10.557-84.639-84.543V96.491c0-73.987 10.584-84.544 84.639-84.544h75.37z" vector-effect="non-scaling-stroke"/></g><g opacity=".3"><linearGradient id="e" x1=".5" x2=".018" y1="1" y2="1" gradientTransform="matrix(181.197 0 0 198.291 42.103 28.855)" gradientUnits="userSpaceOnUse"><stop offset="0%" stop-opacity=".972" stop-color="#fff"/><stop offset="64.572%" stop-opacity=".916" stop-color="#fff"/><stop offset="100%" stop-opacity="0" stop-color="#fff"/></linearGradient><path fill="url(#e)" d="M42.103 224.059a27.321 27.321 0 0 0 3.238 3.086h7.018v-17.094H42.103v14.008zm0-178.11h10.256V28.855h-7.018a27.321 27.321 0 0 0-3.238 3.086v14.008zm17.094 181.196h10.256v-17.094H59.197v17.094zm0-181.196h10.256V28.855H59.197v17.094zm17.094 181.196h10.256v-17.094H76.291v17.094zm0-181.196h10.256V28.855H76.291v17.094zm17.094 181.196h10.256v-17.094H93.385v17.094zm0-181.196h10.256V28.855H93.385v17.094zm17.094 181.196h10.256v-17.094h-10.256v17.094zm0-181.196h10.256V28.855h-10.256v17.094zm17.094 181.196h10.256v-17.094h-10.256v17.094zm0-181.196h10.256V28.855h-10.256v17.094zm17.094 181.196h10.256v-17.094h-10.256v17.094zm0-181.196h10.256V28.855h-10.256v17.094zm17.094 181.196h10.256v-17.094h-10.256v17.094zm0-181.196h10.256V28.855h-10.256v17.094zm17.094 181.196h10.256v-17.094h-10.256v17.094zm0-181.196h10.256V28.855h-10.256v17.094zm17.094 181.196h10.256v-17.094h-10.256v17.094zm0-181.196h10.256V28.855h-10.256v17.094zm17.094 181.196h7.018a27.321 27.321 0 0 0 3.238-3.086v-14.008h-10.256v17.094zm0-181.196h10.256V31.941a27.321 27.321 0 0 0-3.238-3.086h-7.018v17.094z"/></g><defs><filter id="f" width="195.147" height="158.12" x="30.13" y="46.17" filterUnits="userSpaceOnUse"><feGaussianBlur xmlns="http://www.w3.org/2000/svg" stdDeviation="10.766"/></filter></defs><g opacity=".2" filter="url(#f)"><linearGradient id="g" x1=".361" x2=".856" y1=".004" y2=".714" gradientTransform="matrix(-145 0 0 -107.973 200.201 179.216)" gradientUnits="userSpaceOnUse"><stop offset="0%" stop-opacity="0"/><stop offset="67.026%"/><stop offset="100%" stop-opacity="0"/></linearGradient><path fill="url(#g)" d="M183.587 179.213c6.479.081 10.832-1.374 13.066-4.054 2.346-2.793 3.548-7.375 3.548-13.742v-58.054c0-6.367-1.202-10.948-3.548-13.741-2.234-2.681-6.587-4.055-13.066-4.055h-15.386l-20.293-14.324-20.292 14.324H71.814c-6.478 0-10.831 1.374-13.065 4.055-2.346 2.793-3.548 7.374-3.548 13.741v58.054c0 6.367 1.202 10.949 3.548 13.742 2.234 2.68 6.587 4.054 13.065 4.054h111.773z"/></g><defs><filter id="h" width="151.268" height="114.241" x="52.07" y="68.11" filterUnits="userSpaceOnUse"><feGaussianBlur xmlns="http://www.w3.org/2000/svg" stdDeviation="1.346"/></filter></defs><path d="M183.587 179.213c6.479.081 10.832-1.374 13.066-4.054 2.346-2.793 3.548-7.375 3.548-13.742v-58.054c0-6.367-1.202-10.948-3.548-13.741-2.234-2.681-6.587-4.055-13.066-4.055h-15.386l-20.293-14.324-20.292 14.324H71.814c-6.478 0-10.831 1.374-13.065 4.055-2.346 2.793-3.548 7.374-3.548 13.741v58.054c0 6.367 1.202 10.949 3.548 13.742 2.234 2.68 6.587 4.054 13.065 4.054h111.773z" opacity=".1" filter="url(#h)"/><linearGradient id="i" x1=".631" x2=".636" y1=".775" y2=".141" gradientTransform="matrix(-145 0 0 -79.605 200.201 151.754)" gradientUnits="userSpaceOnUse"><stop offset="1.739%" stop-opacity=".996" stop-color="#f2d0dd"/><stop offset="98.696%" stop-color="#f7edf1"/></linearGradient><path fill="url(#i)" d="M200.201 151.754v-47.485c0-6.367-1.202-10.948-3.547-13.74-2.234-2.681-6.588-4.055-13.067-4.055h-15.386l-20.292-14.325-20.293 14.325H71.814c-6.478 0-10.832 1.374-13.066 4.055-2.346 2.792-3.547 7.373-3.547 13.74v47.485h145z"/><linearGradient id="j" x1=".361" x2=".361" y1=".01" y2=".967" gradientTransform="matrix(-145 0 0 -108.607 200.201 180.757)" gradientUnits="userSpaceOnUse"><stop offset="2.174%" stop-color="#fcfafb"/><stop offset="100%" stop-color="#f0dfe5"/></linearGradient><path fill="url(#j)" d="M183.587 180.754c6.479.081 10.832-1.448 13.066-4.129 2.346-2.793 3.548-7.374 3.548-13.741v-56.381l-32-20.03-20.293-14.324-20.292 14.324-72.415 54.987v21.424c0 6.367 1.202 10.948 3.548 13.741 2.234 2.681 6.586 4.129 13.065 4.129h111.773z"/><g opacity=".1"><linearGradient id="k" x1=".612" x2=".714" y1=".365" y2=".498" gradientTransform="matrix(-72.415 0 0 -54.987 127.616 141.46)" gradientUnits="userSpaceOnUse"><stop offset="0%" stop-color="#f582ae"/><stop offset="100%" stop-opacity="0" stop-color="#83b9f5"/></linearGradient><path fill="url(#k)" d="M55.201 141.46l72.415-54.987H71.814c-6.479 0-10.831 1.374-13.065 4.055-2.346 2.793-3.548 7.374-3.548 13.741v37.191z"/></g><g opacity=".1"><linearGradient id="l" x1=".368" x2=".178" y1=".105" y2=".353" gradientTransform="matrix(-32 0 0 -20.184 200.201 106.503)" gradientUnits="userSpaceOnUse"><stop offset="1.739%" stop-color="#f582ae"/><stop offset="100%" stop-opacity="0" stop-color="#83b9f5"/></linearGradient><path fill="url(#l)" d="M200.201 106.503v-2.234c0-6.367-1.202-10.948-3.548-13.741-2.234-2.681-6.631-4.813-13.066-4.055h-15.386l32 20.03z"/></g><path fill="#F582AE" d="M171.201 151.754v-7.25h-87v7.25h87zm0-21.75v-7.25h-43.5v7.25h43.5z"/><path fill="#FFF" d="M183.587 180.754c6.479.081 10.833-1.449 13.067-4.13 2.345-2.792 3.547-7.374 3.547-13.741v-1.812c0 6.367-1.202 10.948-3.547 13.741-2.234 2.68-6.588 4.21-13.067 4.129H71.814c-6.478 0-10.832-1.449-13.066-4.129-2.346-2.793-3.547-7.374-3.547-13.741v1.812c0 6.368 1.201 10.949 3.547 13.741 2.234 2.681 6.588 4.13 13.066 4.13h111.773z"/></g></svg>

<?xml version="1.0" standalone="no"?><!-- Generator: Gravit.io --><svg xmlns="http://www.w3.org/2000/svg" xmlns:xlink="http://www.w3.org/1999/xlink" style="isolation:isolate" viewBox="0 0 256 256" width="256" height="256"><g id="Group" filter="url(#OJ8GJ6AkIiCkDhj1Hkrq5xGAQpeFhNSQ)"><linearGradient id="_lgradient_158" x1="0.5100000000000001" y1="1.0599953577794423" x2="0.5120000000000001" y2="0.21812918270339554" gradientTransform="matrix(244.648,0,0,228.339,6.343,13.28)" gradientUnits="userSpaceOnUse"><stop offset="0.8699999999999999%" stop-opacity="1" style="stop-color:rgb(247,99,99)"/><stop offset="99.565%" stop-opacity="1" style="stop-color:rgb(233,85,141)"/><stop offset="100%" stop-opacity="1" style="stop-color:rgb(230,84,139)"/></linearGradient><path d=" M 166.351 13.28 C 240.407 13.28 250.991 23.837 250.991 97.824 L 250.991 157.075 C 250.991 231.061 240.407 241.619 166.351 241.619 L 90.982 241.619 C 16.926 241.619 6.343 231.061 6.343 157.075 L 6.343 97.824 C 6.343 23.837 16.926 13.28 90.982 13.28 L 166.351 13.28 L 166.351 13.28 Z " id="Path" fill="url(#_lgradient_158)"/></g><defs><filter id="OJ8GJ6AkIiCkDhj1Hkrq5xGAQpeFhNSQ" x="-200%" y="-200%" width="400%" height="400%" filterUnits="objectBoundingBox" color-interpolation-filters="sRGB"><feGaussianBlur xmlns="http://www.w3.org/2000/svg" in="SourceGraphic" stdDeviation="4.294"/><feOffset xmlns="http://www.w3.org/2000/svg" dx="0" dy="4" result="pf_100_offsetBlur"/><feFlood xmlns="http://www.w3.org/2000/svg" flood-color="#000000" flood-opacity="0.4"/><feComposite xmlns="http://www.w3.org/2000/svg" in2="pf_100_offsetBlur" operator="in" result="pf_100_dropShadow"/><feBlend xmlns="http://www.w3.org/2000/svg" in="SourceGraphic" in2="pf_100_dropShadow" mode="normal"/></filter></defs><g opacity="0.05"><path d=" M 8.476 55.74 C 6.729 66.667 6.158 80.255 6.158 97.205 L 6.158 156.456 C 6.158 230.442 16.742 241 90.798 241 L 166.167 241 C 221.302 241 241.245 235.126 247.842 201.603 L 8.476 55.74 L 8.476 55.74 Z " id="Path" fill="rgb(255,255,255)"/></g><g opacity="0.3"><linearGradient id="_lgradient_159" x1="0.5000027594428135" y1="1.0000050431186644" x2="0.01800009933994129" y2="1.0000050431186644" gradientTransform="matrix(181.196,0,0,198.29,42.103,28.855)" gradientUnits="userSpaceOnUse"><stop offset="0%" stop-opacity="0.972" style="stop-color:rgb(255,255,255)"/><stop offset="64.572%" stop-opacity="0.916" style="stop-color:rgb(255,255,255)"/><stop offset="100%" stop-opacity="0" style="stop-color:rgb(255,255,255)"/></linearGradient><path d=" M 42.103 224.059 C 43.09617 225.174441 44.179132 226.206566 45.341 227.145 L 52.359 227.145 L 52.359 210.051 L 42.103 210.051 L 42.103 224.059 L 42.103 224.059 Z  M 42.103 45.949 L 52.359 45.949 L 52.359 28.855 L 45.341 28.855 C 44.179132 29.793434 43.09617 30.825559 42.103 31.941 L 42.103 45.949 L 42.103 45.949 Z  M 59.197 227.145 L 69.453 227.145 L 69.453 210.051 L 59.197 210.051 L 59.197 227.145 L 59.197 227.145 Z  M 59.197 45.949 L 69.453 45.949 L 69.453 28.855 L 59.197 28.855 L 59.197 45.949 L 59.197 45.949 Z  M 76.291 227.145 L 86.547 227.145 L 86.547 210.051 L 76.291 210.051 L 76.291 227.145 L 76.291 227.145 Z  M 76.291 45.949 L 86.547 45.949 L 86.547 28.855 L 76.291 28.855 L 76.291 45.949 L 76.291 45.949 Z  M 93.385 227.145 L 103.641 227.145 L 103.641 210.051 L 93.385 210.051 L 93.385 227.145 L 93.385 227.145 Z  M 93.385 45.949 L 103.641 45.949 L 103.641 28.855 L 93.385 28.855 L 93.385 45.949 L 93.385 45.949 Z  M 110.479 227.145 L 120.735 227.145 L 120.735 210.051 L 110.479 210.051 L 110.479 227.145 L 110.479 227.145 Z  M 110.479 45.949 L 120.735 45.949 L 120.735 28.855 L 110.479 28.855 L 110.479 45.949 L 110.479 45.949 Z  M 127.573 227.145 L 137.829 227.145 L 137.829 210.051 L 127.573 210.051 L 127.573 227.145 L 127.573 227.145 Z  M 127.573 45.949 L 137.829 45.949 L 137.829 28.855 L 127.573 28.855 L 127.573 45.949 L 127.573 45.949 Z  M 144.667 227.145 L 154.923 227.145 L 154.923 210.051 L 144.667 210.051 L 144.667 227.145 L 144.667 227.145 Z  M 144.667 45.949 L 154.923 45.949 L 154.923 28.855 L 144.667 28.855 L 144.667 45.949 L 144.667 45.949 Z  M 161.761 227.145 L 172.017 227.145 L 172.017 210.051 L 161.761 210.051 L 161.761 227.145 L 161.761 227.145 Z  M 161.761 45.949 L 172.017 45.949 L 172.017 28.855 L 161.761 28.855 L 161.761 45.949 L 161.761 45.949 Z  M 178.855 227.145 L 189.111 227.145 L 189.111 210.051 L 178.855 210.051 L 178.855 227.145 L 178.855 227.145 Z  M 178.855 45.949 L 189.111 45.949 L 189.111 28.855 L 178.855 28.855 L 178.855 45.949 L 178.855 45.949 Z  M 195.949 227.145 L 206.205 227.145 L 206.205 210.051 L 195.949 210.051 L 195.949 227.145 L 195.949 227.145 Z  M 195.949 45.949 L 206.205 45.949 L 206.205 28.855 L 195.949 28.855 L 195.949 45.949 L 195.949 45.949 Z  M 213.043 227.145 L 220.061 227.145 C 221.222868 226.206566 222.30583 225.174441 223.299 224.059 L 223.299 210.051 L 213.043 210.051 L 213.043 227.145 L 213.043 227.145 Z  M 213.043 45.949 L 223.299 45.949 L 223.299 31.941 C 222.30583 30.825559 221.222868 29.793434 220.061 28.855 L 213.043 28.855 L 213.043 45.949 L 213.043 45.949 Z " id="Compound Path" fill="url(#_lgradient_159)"/></g><g id="Group" style="opacity:0.2;" filter="url(#SmLTGGWrt9k12fkwOXhFaBYjqnVCs49K)"><g opacity="0.2"><linearGradient id="_lgradient_160" x1="0.639" y1="0.9959980689664302" x2="0.14399999999999996" y2="0.46730268965608524" gradientTransform="matrix(145,0,0,107.973209,55.201,71.243)" gradientUnits="userSpaceOnUse"><stop offset="14.256132491577958%" stop-opacity="1" style="stop-color:rgb(0,0,0)"/><stop offset="61.84450022760828%" stop-opacity="1" style="stop-color:rgb(0,0,0)"/><stop offset="85.2559948375785%" stop-opacity="1" style="stop-color:rgb(0,0,0)"/></linearGradient><path d=" M 183.587 179.213 C 190.066 179.294 194.419 177.839 196.653 175.159 C 198.999 172.366 200.201 167.784 200.201 161.417 L 200.201 103.363 C 200.201 96.996 198.999 92.415 196.653 89.622 C 194.419 86.941 190.066 85.567 183.587 85.567 L 168.201 85.567 L 147.908 71.243 L 127.616 85.567 L 71.814 85.567 C 65.336 85.567 60.983 86.941 58.749 89.622 C 56.403 92.415 55.201 96.996 55.201 103.363 L 55.201 161.417 C 55.201 167.784 56.403 172.366 58.749 175.159 C 60.983 177.839 65.336 179.213 71.814 179.213 L 183.587 179.213 L 183.587 179.213 Z " id="Path" fill="url(#_lgradient_160)"/></g></g><defs><filter id="SmLTGGWrt9k12fkwOXhFaBYjqnVCs49K" x="-200%" y="-200%" width="400%" height="400%" filterUnits="objectBoundingBox" color-interpolation-filters="sRGB"><feGaussianBlur xmlns="http://www.w3.org/2000/svg" stdDeviation="10.766"/></filter></defs><defs><filter id="7IfeCSQF4vyB6ehWSqyVmuSUWgTWIXTo" x="-200%" y="-200%" width="400%" height="400%" filterUnits="objectBoundingBox" color-interpolation-filters="sRGB"><feGaussianBlur xmlns="http://www.w3.org/2000/svg" stdDeviation="1.346"/></filter></defs><g opacity="0.1" filter="url(#7IfeCSQF4vyB6ehWSqyVmuSUWgTWIXTo)"><path d=" M 183.587 179.213 C 190.066 179.294 194.419 177.839 196.653 175.159 C 198.999 172.366 200.201 167.784 200.201 161.417 L 200.201 103.363 C 200.201 96.996 198.999 92.415 196.653 89.622 C 194.419 86.941 190.066 85.567 183.587 85.567 L 168.201 85.567 L 147.908 71.243 L 127.616 85.567 L 71.814 85.567 C 65.336 85.567 60.983 86.941 58.749 89.622 C 56.403 92.415 55.201 96.996 55.201 103.363 L 55.201 161.417 C 55.201 167.784 56.403 172.366 58.749 175.159 C 60.983 177.839 65.336 179.213 71.814 179.213 L 183.587 179.213 L 183.587 179.213 Z " id="Path" fill="rgb(0,0,0)"/></g><linearGradient id="_lgradient_161" x1="0.369" y1="0.22499999999999987" x2="0.364" y2="0.573066000000002" gradientTransform="matrix(145,0,0,79.605,55.201,72.149)" gradientUnits="userSpaceOnUse"><stop offset="1.7390000000000003%" stop-opacity="0.996" style="stop-color:rgb(242,208,221)"/><stop offset="98.696%" stop-opacity="1" style="stop-color:rgb(247,237,241)"/></linearGradient><path d=" M 200.201 151.754 L 200.201 104.269 C 200.201 97.902 198.999 93.321 196.654 90.529 C 194.42 87.848 190.066 86.474 183.587 86.474 L 168.201 86.474 L 147.909 72.149 L 127.616 86.474 L 71.814 86.474 C 65.336 86.474 60.982 87.848 58.748 90.529 C 56.402 93.321 55.201 97.902 55.201 104.269 L 55.201 151.754 L 200.201 151.754 L 200.201 151.754 Z " id="Path" fill="url(#_lgradient_161)"/><linearGradient id="_lgradient_162" x1="0.639" y1="0.989999511460466" x2="0.6390000000000001" y2="0.033008884220834034" gradientTransform="matrix(145,0,0,108.608064,55.201,72.149)" gradientUnits="userSpaceOnUse"><stop offset="2.174%" stop-opacity="1" style="stop-color:rgb(252,250,251)"/><stop offset="100%" stop-opacity="1" style="stop-color:rgb(240,223,229)"/></linearGradient><path d=" M 183.587 180.754 C 190.066 180.835 194.419 179.306 196.653 176.625 C 198.999 173.832 200.201 169.251 200.201 162.884 L 200.201 106.503 L 168.201 86.473 L 147.908 72.149 L 127.616 86.473 L 55.201 141.46 L 55.201 162.884 C 55.201 169.251 56.403 173.832 58.749 176.625 C 60.983 179.306 65.335 180.754 71.814 180.754 L 183.587 180.754 L 183.587 180.754 Z " id="Path" fill="url(#_lgradient_162)"/><g opacity="0.1"><linearGradient id="_lgradient_163" x1="0.388" y1="0.6349999999999993" x2="0.2859999999999999" y2="0.5340088931851128" gradientTransform="matrix(72.415,0,0,54.987,55.201,86.473)" gradientUnits="userSpaceOnUse"><stop offset="0%" stop-opacity="1" style="stop-color:rgb(245,130,174)"/><stop offset="100%" stop-opacity="0" style="stop-color:rgb(131,185,245)"/></linearGradient><path d=" M 55.201 141.46 L 127.616 86.473 L 71.814 86.473 C 65.335 86.473 60.983 87.847 58.749 90.528 C 56.403 93.321 55.201 97.902 55.201 104.269 L 55.201 141.46 L 55.201 141.46 Z " id="Path" fill="url(#_lgradient_163)"/></g><g opacity="0.1"><linearGradient id="_lgradient_164" x1="0.6319999999999997" y1="0.89500447351785" x2="0.8220000000000001" y2="0.7385784735178502" gradientTransform="matrix(32,0,0,20.18486,168.201,86.31814)" gradientUnits="userSpaceOnUse"><stop offset="1.7390000000000003%" stop-opacity="1" style="stop-color:rgb(245,130,174)"/><stop offset="100%" stop-opacity="0" style="stop-color:rgb(131,185,245)"/></linearGradient><path d=" M 200.201 106.503 L 200.201 104.269 C 200.201 97.902 198.999 93.321 196.653 90.528 C 194.419 87.847 190.022 85.715 183.587 86.473 L 168.201 86.473 L 200.201 106.503 L 200.201 106.503 Z " id="Path" fill="url(#_lgradient_164)"/></g><path d=" M 171.201 151.754 L 171.201 144.504 L 84.201 144.504 L 84.201 151.754 L 171.201 151.754 L 171.201 151.754 Z  M 171.201 130.004 L 171.201 122.754 L 127.701 122.754 L 127.701 130.004 L 171.201 130.004 L 171.201 130.004 Z " id="Compound Path" fill="rgb(245,130,174)"/><path d=" M 183.587 180.754 C 190.066 180.835 194.42 179.305 196.654 176.624 C 198.999 173.832 200.201 169.25 200.201 162.883 L 200.201 161.071 C 200.201 167.438 198.999 172.019 196.654 174.812 C 194.42 177.492 190.066 179.022 183.587 178.941 L 71.814 178.941 C 65.336 178.941 60.982 177.492 58.748 174.812 C 56.402 172.019 55.201 167.438 55.201 161.071 L 55.201 162.883 C 55.201 169.251 56.402 173.832 58.748 176.624 C 60.982 179.305 65.336 180.754 71.814 180.754 L 183.587 180.754 L 183.587 180.754 Z " id="Path" fill="rgb(255,255,255)"/></svg>
